X: 1
T: Bistrica Kopanica
N: Gajda (no chords, just drone)
M: 11/16
L: 1/16
K: Dmix
[| "D drone"GDG2 GFE D4 | GDG2 GFE D2z2 |: GDG2 GFE FGAD | GDG2 GFE D2z2 :|
[| G2A2 E2D FGAD | {A}G2A2 E2D D4 | {A}G2A2 E2D FGAD | {A}G2A2 E2D D3C |]
|:: "C drone"EFGC E2C EFGC | EFGC E2C E2EC y::| EFGC E2C EFGC | EFGC "D"D3 D2z2 |]
